icon-svg/vaultwarden.svg

<?xml version="1.0" encoding="UTF-8" standalone="no"?>
<svg
   id="Livello_1"
   data-name="Livello 1"
   viewBox="0 0 24 24"
   version="1.1"
   width="24"
   height="24"
   xmlns="http://www.w3.org/2000/svg"
   xmlns:svg="http://www.w3.org/2000/svg">
  <path id="Colore_riempimento_1" fill="#44739e" data-name="Colore riempimento 1" class="cls-1"
     d="M 12.11757,22.62 H 11.858 c -0.19561,-0.29121 -0.39433,-0.58051 -0.58585,-0.87422 -0.15454,-0.237 -0.3177,-0.25671 -0.5138,-0.04485 -0.18261,0.19728 -0.36581,0.39492 -0.56156,0.57967 C 9.96385,22.50045 9.75799,22.46593 9.6223,22.17644 9.53348,21.98693 9.46577,21.78809 9.38973,21.59302 9.19583,21.09563 9.11814,21.0745 8.66153,21.39535 c -0.15148,0.10644 -0.29876,0.21944 -0.45664,0.31618 -0.32637,0.2 -0.50534,0.13353 -0.58855,-0.2232 -0.06,-0.25734 -0.09417,-0.52023 -0.14792,-0.77907 -0.05064,-0.24393 -0.18674,-0.32877 -0.43561,-0.2121 -0.23266,0.10907 -0.46986,0.21 -0.70942,0.3041 -0.36547,0.14355 -0.51893,0.04957 -0.526,-0.32385 -0.005,-0.26487 0.0101,-0.53005 0.00951,-0.79507 -5.6e-4,-0.25454 -0.14053,-0.35451 -0.392,-0.29891 -0.26586,0.05876 -0.528,0.13345 -0.79414,0.19082 -0.30914,0.06664 -0.50345,-0.11855 -0.441,-0.42061 0.03934,-0.19043 0.09793,-0.37708 0.1455,-0.566 0.13322,-0.52906 0.08253,-0.5921 -0.46626,-0.5836 -0.20169,0.0031 -0.4036,0.01449 -0.605,0.0088 -0.38043,-0.01067 -0.48337,-0.165 -0.33965,-0.51352 0.08517,-0.20654 0.19082,-0.40506 0.28256,-0.60917 0.153,-0.34038 0.08037,-0.47329 -0.3045,-0.543 C 2.68046,16.30883 2.46395,16.29397 2.25215,16.25496 1.83474,16.17808 1.75692,15.98961 1.99786,15.64128 2.13399,15.44447 2.27896,15.25319 2.42493,15.06301 2.60249,14.83166 2.52854,14.67647 2.27239,14.57901 2.03176,14.48741 1.78385,14.41293 1.54647,14.31438 1.194,14.16804 1.15247,13.97483 1.41434,13.71238 1.56421,13.56218 1.73109,13.42799 1.88834,13.28457 2.25666,12.94864 2.24834,12.88121 1.8062,12.61084 1.55199,12.45538 1.29664,12.30167 1.0418,12.14717 v -0.33513 c 0.26739,-0.16138 0.53609,-0.32076 0.80186,-0.48459 0.39052,-0.24074 0.40055,-0.325 0.0761,-0.62453 C 1.77384,10.5682 1.62061,10.44085 1.47551,10.30532 1.12697,9.97977 1.16761,9.79461 1.62821,9.61559 1.84147,9.5327 2.06001,9.46259 2.27344,9.38007 2.5292,9.2812 2.60161,9.12576 2.42407,8.89499 2.26928,8.69379 2.11214,8.49342 1.972,8.28272 1.76777,7.97566 1.84835,7.78293 2.2113,7.71015 2.4363,7.66504 2.66816,7.65306 2.8943,7.6123 3.27807,7.54313 3.35011,7.40921 3.19578,7.06758 3.09788,6.85088 2.98178,6.64134 2.8939,6.42107 2.77877,6.13242 2.87835,5.95426 3.21353,5.9469 3.45822,5.94153 3.70382,5.94538 3.94811,5.95969 4.30846,5.9808 4.47169,5.86369 4.35253,5.49269 A 6.69351,6.69351 0 0 1 4.1788,4.80444 C 4.11639,4.50357 4.31297,4.31919 4.62237,4.38598 4.88851,4.44344 5.15098,4.51677 5.41681,4.57574 5.67002,4.6319 5.80691,4.52974 5.80702,4.27589 5.80713,4.01089 5.7921,3.74566 5.79727,3.48079 c 0.00727,-0.37256 0.162,-0.46643 0.5272,-0.32214 0.22609,0.08932 0.45077,0.18393 0.66854,0.2906 0.28584,0.14 0.43479,0.0432 0.48863,-0.241 C 7.52826,2.96214 7.55998,2.71297 7.61679,2.46919 7.69944,2.11457 7.88068,2.04809 8.20609,2.24858 8.37591,2.35321 8.53509,2.47407 8.69887,2.58784 9.11145,2.87443 9.1976,2.8507 9.3734,2.40333 9.45509,2.19544 9.5285,1.98382 9.62297,1.78146 9.75821,1.4918 9.96379,1.45673 10.19697,1.67773 c 0.19538,0.1852 0.37866,0.38274 0.56145,0.5799 0.19546,0.21084 0.359,0.194 0.514,-0.044 0.19136,-0.29385 0.39013,-0.58318 0.5857,-0.87446 h 0.25959 c 0.20419,0.2849 0.41583,0.56515 0.61029,0.85615 0.16439,0.246 0.328,0.29408 0.54013,0.0544 0.14059,-0.15881 0.29169,-0.309 0.44052,-0.46087 0.37133,-0.3788 0.5581,-0.33872 0.75574,0.16012 0.08238,0.20791 0.16559,0.41551 0.24791,0.62343 0.09011,0.2276 0.24812,0.256 0.44205,0.129 0.22659,-0.14839 0.43936,-0.31695 0.66884,-0.46072 0.305,-0.19109 0.52349,-0.10266 0.59774,0.24216 0.05272,0.24488 0.07636,0.4955 0.11938,0.74252 0.0469,0.26927 0.19422,0.35472 0.46007,0.23191 0.23348,-0.10785 0.46955,-0.21162 0.70975,-0.30438 0.34216,-0.13215 0.53469,-0.0165 0.5404,0.33722 0.004,0.25032 -0.03371,0.50106 -0.04657,0.75192 -0.014,0.27387 0.126,0.39 0.40138,0.33387 0.253,-0.0516 0.50249,-0.11927 0.75433,-0.17655 0.36289,-0.08253 0.52265,0.05307 0.46459,0.41845 -0.03917,0.24651 -0.11592,0.48741 -0.17537,0.73093 -0.07031,0.288 0.04091,0.42531 0.35289,0.41128 0.25913,-0.01165 0.51911,-0.02021 0.77824,-0.01334 0.3514,0.00933 0.46241,0.17233 0.335,0.49109 -0.0829,0.20747 -0.18867,0.40629 -0.28182,0.61 -0.17049,0.37289 -0.1104,0.48907 0.30389,0.56387 0.22624,0.04084 0.45855,0.05262 0.68284,0.10061 0.34032,0.07281 0.42291,0.26485 0.2376,0.54674 -0.13905,0.21151 -0.29228,0.415 -0.45,0.61411 -0.19379,0.24463 -0.12585,0.40674 0.153,0.51164 0.24113,0.09069 0.48873,0.16661 0.72518,0.26732 0.32071,0.1366 0.36487,0.33578 0.12786,0.58148 -0.1767,0.18317 -0.36911,0.35293 -0.56261,0.51987 -0.23192,0.20008 -0.2216,0.37057 0.044,0.52816 0.22079,0.131 0.44721,0.25474 0.65769,0.4 0.28554,0.197 0.28665,0.39647 0.0024,0.59378 -0.2217,0.15391 -0.46012,0.28526 -0.69142,0.42617 -0.22675,0.13814 -0.23581,0.29764 -0.04734,0.473 0.19734,0.18363 0.40616,0.35652 0.594,0.54876 0.23907,0.24473 0.1973,0.44584 -0.12046,0.58288 -0.236,0.10176 -0.48431,0.17632 -0.72516,0.26786 -0.27188,0.10334 -0.35674,0.26091 -0.15961,0.50968 0.15774,0.19906 0.31073,0.4027 0.45032,0.61392 0.18652,0.28224 0.10688,0.47448 -0.23224,0.54954 -0.22385,0.04955 -0.45648,0.06051 -0.68284,0.101 -0.41772,0.07476 -0.47831,0.189 -0.30866,0.561 0.09293,0.20379 0.19886,0.4025 0.28222,0.6098 0.12846,0.31948 0.01857,0.48283 -0.33125,0.49379 -0.23025,0.0072 -0.46117,-0.008 -0.69182,-0.0099 -0.455,-0.004 -0.5209,0.07155 -0.42251,0.487 0.04812,0.20318 0.11383,0.403 0.15168,0.6078 0.07424,0.40162 -0.0888,0.54259 -0.49835,0.44731 -0.23771,-0.0553 -0.47533,-0.11135 -0.71442,-0.16057 -0.27682,-0.057 -0.41624,0.057 -0.40343,0.33049 0.01175,0.25089 0.05024,0.50157 0.04661,0.75193 -0.0051,0.35488 -0.19733,0.47247 -0.53827,0.341 -0.24024,-0.09263 -0.47619,-0.19682 -0.70917,-0.30566 -0.26573,-0.12413 -0.41354,-0.03724 -0.462,0.22967 -0.04484,0.24667 -0.0672,0.49752 -0.11979,0.74244 -0.07422,0.34567 -0.29235,0.435 -0.597,0.24519 -0.21773,-0.13564 -0.42234,-0.29108 -0.63236,-0.43827 -0.22912,-0.16057 -0.395,-0.12893 -0.49661,0.14172 -0.09314,0.24816 -0.18338,0.49867 -0.29876,0.73734 -0.15134,0.31309 -0.34337,0.34351 -0.59912,0.10146 C 13.61201,22.08626 13.4376,21.89925 13.26817,21.7092 13.05512,21.4702 12.8924,21.51756 12.728,21.76365 12.53341,22.0549 12.32176,22.33513 12.11757,22.62 Z M 7.69777,5.01618 11.97645,16.2247 16.02354,5.08983 C 15.29222,4.83061 14.62163,4.59083 13.94933,4.35555 A 0.65115,0.65115 0 0 0 13.153,4.558 6.66834,6.66834 0 0 1 12.44243,5.22946 0.61743,0.61743 0 0 1 11.46561,5.22446 C 11.18345,4.96533 10.91851,4.68792 10.62718,4.43923 A 0.50166,0.50166 0 0 0 10.25811,4.31248 C 9.42874,4.52492 8.60631,4.76276 7.69777,5.01618 Z m 6.67681,14.2757 c 0.80078,-0.01569 1.07926,-0.46615 1.13133,-1.1263 a 3.0076,3.0076 0 0 1 0.11727,-0.53085 c 0.13165,-0.49169 0.36909,-0.63533 0.8867,-0.53381 a 7.60616,7.60616 0 0 1 0.83963,0.18891 0.54872,0.54872 0 0 0 0.63946,-0.18609 6.72685,6.72685 0 0 0 1.99549,-5.73949 0.50572,0.50572 0 0 0 -0.25041,-0.32176 C 19.36457,10.85716 18.97234,10.715 18.59587,10.54191 A 0.58077,0.58077 0 0 1 18.25193,9.65738 c 0.20073,-0.46186 0.4224,-0.91541 0.61326,-1.38091 A 1.32074,1.32074 0 0 0 18.8935,7.86006 L 18.74712,7.83953 Z M 9.56039,19.27341 5.25891,8.00535 5.14872,8.03053 a 2.589,2.589 0 0 0 0.08677,0.50494 c 0.13307,0.35217 0.29765,0.69308 0.4458,1.04 0.2107,0.49341 0.11529,0.73314 -0.39236,0.964 a 8.57406,8.57406 0 0 1 -0.87056,0.36389 0.56249,0.56249 0 0 0 -0.43249,0.62328 8.82869,8.82869 0 0 0 2.092,5.58344 0.61038,0.61038 0 0 0 0.46193,0.14168 C 6.86681,17.2227 7.1866,17.12592 7.5123,17.07437 8.00074,16.99706 8.21111,17.137 8.31836,17.5919 a 4.09219,4.09219 0 0 1 0.15654,0.73516 c 0.0279,0.62594 0.42469,0.85453 1.08549,0.94635 z M 4.85,9.57065 a 0.6454,0.6454 0 1 0 -0.652,0.636 0.64975,0.64975 0 0 0 0.652,-0.636 z m 2.3111,9.53618 a 0.63384,0.63384 0 0 0 0.63019,-0.65141 0.64372,0.64372 0 0 0 -0.63654,-0.6081 0.66411,0.66411 0 0 0 -0.66062,0.6351 0.6536,0.6536 0 0 0 0.66697,0.62441 z M 20.388,9.6095 A 0.64451,0.64451 0 0 0 19.09916,9.59821 0.605,0.605 0 0 0 19.71472,10.21931 0.61717,0.61717 0 0 0 20.388,9.6095 Z m -4.2192,8.87209 a 0.58176,0.58176 0 0 0 0.58016,0.64254 0.64127,0.64127 0 0 0 0.70289,-0.58721 0.679,0.679 0 0 0 -0.646,-0.66257 0.62584,0.62584 0 0 0 -0.63705,0.60724 z M 11.9818,3.22035 a 0.6379,0.6379 0 0 0 -0.64821,0.63532 0.61021,0.61021 0 0 0 0.61209,0.61556 0.64869,0.64869 0 0 0 0.68523,-0.60032 0.67718,0.67718 0 0 0 -0.64913,-0.65056 z" />
</svg>

<svg xmlns="http://www.w3.org/2000/svg" data-name="Livello 1" viewBox="0 0 24 24"><path fill="#44739e" d="M12.1176 22.62h-.2596c-.1956-.2912-.3943-.5805-.5858-.8742-.1546-.237-.3177-.2567-.5138-.0449-.1827.1973-.3659.395-.5616.5797-.233.2199-.4388.1853-.5745-.1042-.0888-.1895-.1565-.3883-.2326-.5834-.1939-.4974-.2716-.5185-.7282-.1976-.1514.1064-.2987.2194-.4566.3161-.3264.2-.5053.1336-.5886-.2232-.06-.2573-.0941-.5202-.1479-.779-.0506-.244-.1867-.3288-.4356-.2121-.2326.109-.4698.21-.7094.304-.3655.1436-.519.0496-.526-.3238-.005-.2649.01-.53.0095-.795-.0006-.2546-.1405-.3546-.392-.299-.2659.0588-.528.1335-.7941.1908-.3092.0667-.5035-.1185-.441-.4206.0393-.1904.0979-.377.1455-.566.1332-.529.0825-.592-.4663-.5836-.2017.0031-.4036.0145-.605.0088-.3804-.0106-.4834-.165-.3396-.5135.0851-.2065.1908-.405.2825-.6092.153-.3403.0804-.4732-.3045-.543-.212-.0383-.4284-.0531-.6402-.0921-.4175-.077-.4953-.2654-.2543-.6137.136-.1968.281-.3881.427-.5783.1776-.2313.1036-.3865-.1525-.484-.2406-.0916-.4886-.166-.726-.2646-.3524-.1464-.394-.3396-.132-.602.1498-.1502.3167-.2844.474-.4278.3683-.336.36-.4034-.0822-.6738-.2542-.1554-.5096-.3091-.7644-.4636v-.3352c.2674-.1613.536-.3207.8019-.4845.3905-.2408.4005-.325.076-.6246-.1459-.1347-.299-.262-.4442-.3976-.3485-.3255-.3079-.5107.1527-.6897.2133-.0829.4318-.153.6452-.2355.2558-.0989.3282-.2543.1507-.4851-.1548-.2012-.312-.4016-.4521-.6123-.2042-.307-.1237-.4998.2393-.5726.225-.045.4569-.057.683-.0978.3838-.0692.4558-.203.3015-.5447-.098-.2167-.214-.4263-.3019-.6465-.1151-.2887-.0155-.4668.3196-.4742a9 9 0 0 1 .7346.0128c.3604.0211.5236-.096.4044-.467a6.7 6.7 0 0 1-.1737-.6883c-.0624-.3008.1342-.4852.4436-.4184.2661.0574.5286.1308.7944.1897.2532.0562.3901-.046.3902-.2998.0001-.265-.0149-.5302-.0097-.7951.0072-.3726.162-.4664.5272-.3222.226.0894.4507.184.6685.2906.2858.14.4348.0432.4886-.241.0467-.246.0784-.4952.1352-.739.0826-.3546.2639-.4211.5893-.2206.1698.1046.329.2255.4928.3392.4125.2866.4987.2629.6745-.1845.0817-.2079.1551-.4195.2496-.6218.1352-.2897.3408-.3248.574-.1038.1954.1852.3786.3828.5614.58.1955.2108.359.194.514-.044.1914-.294.3902-.5833.5857-.8745h.2596c.2042.2849.4158.5651.6103.8561.1644.246.328.2941.5401.0544.1406-.1588.2917-.309.4405-.4609.3714-.3788.5581-.3387.7558.1602.0824.2079.1656.4155.2479.6234.0901.2276.2481.256.442.129.2266-.1484.4394-.317.6689-.4607.305-.1911.5235-.1027.5977.2421.0527.245.0764.4955.1194.7426.047.2692.1942.3547.46.2319.2336-.1079.4696-.2117.7098-.3044.3422-.1322.5347-.0165.5404.3372.004.2503-.0337.501-.0465.752-.014.2738.126.39.4013.3338.253-.0516.5025-.1193.7544-.1766.3629-.0825.5226.0531.4646.4185-.0392.2465-.116.4874-.1754.731-.0703.288.0409.4252.3529.4112.2591-.0116.519-.0202.7782-.0133.3514.0093.4624.1723.335.491-.0829.2075-.1887.4063-.2818.61-.1705.373-.1104.4891.3039.564.2262.0408.4585.0525.6828.1005.3403.0728.423.2649.2376.5468-.139.2115-.2923.415-.45.614-.1938.2447-.1258.4068.153.5117.2412.0907.4888.1666.7252.2673.3207.1366.3649.3358.1279.5815-.1767.1832-.3691.353-.5626.5199-.232.2-.2216.3706.044.5282.2207.131.4472.2547.6576.4.2856.197.2867.3964.0024.5937-.2217.154-.46.2853-.6914.4262-.2267.1382-.2358.2977-.0473.473.1973.1836.4061.3565.594.5488.239.2447.1973.4458-.1205.5829-.236.1017-.4843.1763-.7251.2678-.272.1034-.3568.261-.1596.5097.1577.199.3107.4027.4503.614.1865.2822.1069.4744-.2323.5495-.2238.0495-.4564.0605-.6828.101-.4177.0747-.4783.189-.3087.561.093.2037.1989.4025.2823.6098.1284.3194.0185.4828-.3313.4937-.2302.0072-.4612-.008-.6918-.0099-.455-.004-.521.0716-.4225.487.0481.2032.1138.403.1517.6078.0742.4017-.0888.5426-.4984.4474-.2377-.0553-.4753-.1114-.7144-.1606-.2768-.057-.4163.057-.4034.3305.0117.2509.0502.5015.0466.7519-.0051.3549-.1974.4725-.5383.341-.2402-.0926-.4762-.1968-.7092-.3057-.2657-.124-.4135-.0372-.462.2297-.0448.2467-.0672.4975-.1198.7425-.0742.3456-.2923.435-.597.2451-.2177-.1356-.4223-.291-.6323-.4382-.2291-.1606-.395-.129-.4966.1417-.0932.2482-.1834.4987-.2988.7373-.1513.3131-.3434.3435-.5991.1015-.1853-.1754-.3597-.3625-.5291-.5525-.213-.239-.3758-.1916-.5402.0544-.1946.2913-.4062.5715-.6104.8564M7.6978 5.0162l4.2787 11.2085 4.047-11.1349c-.7313-.2592-1.4019-.499-2.0742-.7343a.651.651 0 0 0-.7963.2025 6.7 6.7 0 0 1-.7106.6715.6174.6174 0 0 1-.9768-.005c-.2821-.2592-.547-.5366-.8384-.7853a.502.502 0 0 0-.369-.1267c-.8295.2124-1.6519.4503-2.5604.7037m6.6768 14.2757c.8008-.0157 1.0792-.4662 1.1313-1.1263a3 3 0 0 1 .1173-.5309c.1316-.4917.369-.6353.8867-.5338a7.6 7.6 0 0 1 .8396.189.549.549 0 0 0 .6395-.1862 6.727 6.727 0 0 0 1.9955-5.7394.506.506 0 0 0-.2505-.3218c-.3694-.1853-.7617-.3275-1.1381-.5006a.5808.5808 0 0 1-.344-.8845c.2008-.4619.4224-.9154.6133-1.381a1.32 1.32 0 0 0 .0283-.4163l-.1464-.0206Zm-4.8142-.0185L5.2589 8.0054l-.1102.0251a2.6 2.6 0 0 0 .0868.505c.133.3521.2976.693.4458 1.04.2107.4934.1153.7331-.3924.964a8.6 8.6 0 0 1-.8705.3639.5625.5625 0 0 0-.4325.6232 8.83 8.83 0 0 0 2.092 5.5835.61.61 0 0 0 .462.1417c.327-.0291.6467-.1259.9724-.1774.4884-.0773.6988.0626.806.5175a4.1 4.1 0 0 1 .1566.7352c.0279.6259.4247.8545 1.0855.9463M4.85 9.5707a.6454.6454 0 1 0-.652.636.65.65 0 0 0 .652-.636m2.3111 9.5361a.634.634 0 0 0 .6302-.6514.6437.6437 0 0 0-.6366-.608.664.664 0 0 0-.6606.635.6536.6536 0 0 0 .667.6244M20.388 9.6095a.6445.6445 0 0 0-1.2888-.0113.605.605 0 0 0 .6155.6211.617.617 0 0 0 .6733-.6098m-4.2192 8.872a.582.582 0 0 0 .5802.6426.6413.6413 0 0 0 .7029-.5872.679.679 0 0 0-.646-.6625.626.626 0 0 0-.6371.6072m-4.187-15.2611a.638.638 0 0 0-.6482.6353.61.61 0 0 0 .612.6155.6487.6487 0 0 0 .6853-.6003.677.677 0 0 0-.6491-.6505" class="cls-1" data-name="Colore riempimento 1"/></svg>
